X:1
T:Title
%%score { ( 1 3 ) | ( 2 4 ) }
L:1/8
Q:1/4=100
M:4/4
K:G
V:1 treble nm="Grand Piano"
V:3 treble 
V:2 bass 
V:4 bass 
V:1
 E2 G2 F2 E2 | B2 [Ec]2 [^DF]4 | [B,G]2 [DA]2 [DB]2 [EB]2 | z2 A2 z4 | [Gd]2 [^Gd]2 [Ac]2 [DFc]2 | %5
w: John~Antes * * *|||||
 [DGB]2 [EGB]2 [A,FA]4 | [DFc]2 [DGB]2 [^DFA]2 [B,EG]2 |[M:8/4] [CEF]2 .[B,^DF]2 [G,B,E]4 z8 | %8
w: |||
[M:4/4] [A,CE]4 [G,B,E]4 |] %9
w: |
V:2
 [E,G,B,]2 [E,B,E]2 [F,A,^D]2 [G,B,]2 | [E,G,E]2 [A,,A,]2 [B,,F,]4 | %2
 [E,G,]2 [D,F,]2 [G,,G,]2 [E,G,]2 | [C,G,]2 .[D,F,D]2 [G,,G,]4 | [G,B,]2 [E,B,]2 A,2 D,2 | %5
 G,2 ^C,2 D,4 | D,2 G,2 B,,2 E,2 |[M:8/4] .A,,3 A, E,4 z8 |[M:4/4] A,,4 E,4 |] %9
V:3
 x8 | x8 | x8 | [EA]2 z C [B,G]4 | x8 | x8 | x8 |[M:8/4] x16 |[M:4/4] x8 |] %9
V:4
 x8 | x8 | x8 | x8 | x8 | x8 | x8 |[M:8/4] z2 B,,2 z4 z8 |[M:4/4] x8 |] %9

